src/assets/img/tools/redux.svg

<svg width="24" height="24" fill="none" xmlns="http://www.w3.org/2000/svg"><path d="M16.633 16.504c.869-.075 1.543-.84 1.499-1.754-.046-.914-.795-1.648-1.708-1.648h-.061a1.71 1.71 0 00-1.648 1.769c.03.479.226.869.494 1.153-1.048 2.038-2.621 3.536-5.004 4.795-1.603.838-3.296 1.154-4.944.929-1.378-.194-2.456-.81-3.116-1.798-.988-1.499-1.078-3.116-.255-4.734.601-1.169 1.499-2.023 2.099-2.443a9.96 9.96 0 01-.42-1.542C-.867 14.408-.416 18.752.932 20.805c1.004 1.498 3.057 2.456 5.304 2.456.599 0 1.229-.044 1.843-.194 3.896-.749 6.847-3.086 8.54-6.532l.014-.031zm5.348-3.746c-2.321-2.727-5.738-4.225-9.634-4.225h-.51c-.253-.554-.837-.899-1.497-.899h-.045c-.943 0-1.678.81-1.647 1.753.03.898.794 1.648 1.708 1.648h.074a1.69 1.69 0 001.498-1.049h.555c2.309 0 4.495.674 6.488 1.992 1.527 1.004 2.622 2.322 3.236 3.896.538 1.288.509 2.547-.045 3.597-.854 1.647-2.293 2.517-4.195 2.517-1.199 0-2.367-.375-2.967-.644-.359.298-.959.793-1.394 1.093 1.318.598 2.652.943 3.94.943 2.922 0 5.093-1.647 5.918-3.236.898-1.798.824-4.824-1.469-7.416l-.014.03zM6.49 17.042a1.724 1.724 0 001.708 1.648h.06a1.688 1.688 0 001.648-1.768c0-.899-.779-1.647-1.693-1.647h-.061c-.06 0-.149 0-.225.029-1.243-2.098-1.768-4.346-1.572-6.771.119-1.828.719-3.417 1.797-4.735.899-1.124 2.592-1.679 3.746-1.708 3.236-.061 4.585 3.971 4.689 5.574l1.498.449c-.345-4.914-3.4-7.492-6.322-7.492-2.742 0-5.273 1.993-6.293 4.915-1.393 3.896-.479 7.641 1.229 10.638-.149.195-.239.539-.209.868z" fill="#764ABC"/></svg>

<svg width="24" height="24" viewBox="0 0 24 24" fill="none" xmlns="http://www.w3.org/2000/svg">
    <path d="M16.633 16.504C17.502 16.429 18.176 15.664 18.132 14.75C18.086 13.836 17.337 13.102 16.424 13.102H16.363C15.42 13.133 14.685 13.926 14.715 14.871C14.745 15.35 14.941 15.74 15.209 16.024C14.161 18.062 12.588 19.56 10.205 20.819C8.602 21.657 6.909 21.973 5.261 21.748C3.883 21.554 2.805 20.938 2.145 19.95C1.157 18.451 1.067 16.834 1.89 15.216C2.491 14.047 3.389 13.193 3.989 12.773C3.839 12.384 3.659 11.725 3.569 11.231C-0.866999 14.408 -0.415999 18.752 0.932001 20.805C1.936 22.303 3.989 23.261 6.236 23.261C6.835 23.261 7.465 23.217 8.079 23.067C11.975 22.318 14.926 19.981 16.619 16.535L16.633 16.504ZM21.981 12.758C19.66 10.031 16.243 8.533 12.347 8.533H11.837C11.584 7.979 11 7.634 10.34 7.634H10.295C9.352 7.634 8.617 8.444 8.648 9.387C8.678 10.285 9.442 11.035 10.356 11.035H10.43C11.105 11.005 11.689 10.585 11.928 9.986H12.483C14.792 9.986 16.978 10.66 18.971 11.978C20.498 12.982 21.593 14.3 22.207 15.874C22.745 17.162 22.716 18.421 22.162 19.471C21.308 21.118 19.869 21.988 17.967 21.988C16.768 21.988 15.6 21.613 15 21.344C14.641 21.642 14.041 22.137 13.606 22.437C14.924 23.035 16.258 23.38 17.546 23.38C20.468 23.38 22.639 21.733 23.464 20.144C24.362 18.346 24.288 15.32 21.995 12.728L21.981 12.758ZM6.49 17.042C6.519 17.941 7.283 18.69 8.198 18.69H8.258C9.217 18.66 9.951 17.867 9.906 16.922C9.906 16.023 9.127 15.275 8.213 15.275H8.152C8.092 15.275 8.003 15.275 7.927 15.304C6.684 13.206 6.159 10.958 6.355 8.533C6.474 6.705 7.074 5.116 8.152 3.798C9.051 2.674 10.744 2.119 11.898 2.09C15.134 2.029 16.483 6.061 16.587 7.664L18.085 8.113C17.74 3.199 14.685 0.621002 11.763 0.621002C9.021 0.621002 6.49 2.614 5.47 5.536C4.077 9.432 4.991 13.177 6.699 16.174C6.55 16.369 6.46 16.713 6.49 17.042Z"
          fill="#764ABC"/>
</svg>
